src/images/svg/symbols/markets-stocks-and-indices/american-stocks/stocks-deutsche-lufthansa-ag.svg

<svg width="32" height="32" viewBox="0 0 32 32" fill="none" xmlns="http://www.w3.org/2000/svg">
<path d="M0 16C0 7.16344 7.16344 0 16 0C24.8366 0 32 7.16344 32 16C32 24.8366 24.8366 32 16 32C7.16344 32 0 24.8366 0 16Z" fill="#0A1D3D"/>
<path d="M20.653 13.6138C20.5618 13.6138 20.485 13.6162 20.4418 13.621C20.3914 13.7122 20.317 13.8346 20.2066 14.005C21.9248 14.005 23.4846 14.1465 25.21 14.4561L24.7228 14.9264C23.1654 14.6505 21.872 14.5401 20.2234 14.5401C19.9835 14.5401 19.9331 14.5401 19.8755 14.5425C19.8179 14.6289 19.6883 14.7968 19.5588 14.9528C19.7051 14.9433 19.9883 14.9385 20.3794 14.9385C21.7352 14.9385 23.0023 15.0392 24.3773 15.26L23.8901 15.7327C22.8439 15.5696 21.5648 15.476 20.4178 15.476C20.0099 15.476 19.5467 15.4904 19.1316 15.5144C19.038 15.6223 18.7933 15.8863 18.7189 15.9679C19.2684 15.9103 19.8731 15.8839 20.593 15.8839C21.6177 15.8839 22.5968 15.9511 23.523 16.0879L23.0358 16.5558C22.3759 16.4742 21.5744 16.4263 20.8666 16.4263C19.0404 16.4263 17.6006 16.8222 16.1128 17.7317C17.531 19.2531 19.8539 20.2153 22.1048 20.2153H22.3159L21.5289 20.9761C18.2821 20.3665 14.865 18.9387 11.9782 16.9829C9.20174 15.1088 8.22988 14.5545 6.06298 13.5971L6.04859 13.0403L7.51479 13.669L8.01392 13.2731L12.8012 15.4664L12.4893 15.7159L10.032 14.6481L9.78966 14.8376L11.0663 15.5504C12.1438 16.1503 12.9644 16.419 13.7228 16.419C15.3809 16.419 16.8687 15.2432 17.8286 13.1771C18.5509 13.0835 19.3212 13.0403 20.2474 13.0403C22.148 13.0403 23.9933 13.2227 26.0834 13.6138L25.5747 14.1057C24.2741 13.8346 22.064 13.6138 20.653 13.6138ZM16 27.2799C9.77205 27.2799 4.72006 22.228 4.72006 16C4.72006 9.77205 9.77205 4.72001 16 4.72001C22.2279 4.72001 27.2799 9.77205 27.2799 16C27.2799 22.228 22.2279 27.2799 16 27.2799ZM16 4.00006C9.36407 4.00006 4 9.36401 4 16C4 22.636 9.36407 28 16 28C22.636 28 28 22.636 28 16C28 9.36401 22.636 4.00006 16 4.00006Z" fill="white"/>
</svg>

<svg width="32" height="32" fill="none" xmlns="http://www.w3.org/2000/svg"><path d="M0 16C0 7.163 7.163 0 16 0s16 7.163 16 16-7.163 16-16 16S0 24.837 0 16Z" fill="#0A1D3D"/><path d="M20.653 13.614c-.091 0-.168.002-.211.007-.05.091-.125.214-.235.384 1.718 0 3.278.141 5.003.451l-.487.47a24.097 24.097 0 0 0-4.5-.386c-.24 0-.29 0-.348.003a6.098 6.098 0 0 1-.316.41c.146-.01.43-.014.82-.014 1.356 0 2.623.1 3.998.321l-.487.473a23.781 23.781 0 0 0-3.472-.257c-.408 0-.871.014-1.286.038-.094.108-.339.372-.413.454.55-.058 1.154-.084 1.874-.084 1.025 0 2.004.067 2.93.204l-.487.468c-.66-.082-1.462-.13-2.17-.13-1.826 0-3.265.396-4.753 1.306 1.418 1.521 3.74 2.483 5.992 2.483h.21l-.786.761c-3.247-.61-6.664-2.037-9.55-3.993-2.777-1.874-3.75-2.428-5.916-3.386l-.014-.557 1.466.629.499-.396 4.787 2.193-.312.25-2.457-1.068-.242.19 1.276.712c1.078.6 1.898.869 2.657.869 1.658 0 3.146-1.176 4.106-3.242a18.589 18.589 0 0 1 2.418-.137c1.901 0 3.746.183 5.836.574l-.508.492c-1.3-.271-3.511-.492-4.922-.492ZM16 27.28C9.772 27.28 4.72 22.228 4.72 16S9.772 4.72 16 4.72 27.28 9.772 27.28 16 22.228 27.28 16 27.28ZM16 4C9.364 4 4 9.364 4 16s5.364 12 12 12 12-5.364 12-12S22.636 4 16 4Z" fill="#fff"/></svg>
